build/img/pin.svg

<svg width="26" height="40" viewBox="0 0 26 40" fill="none" xmlns="http://www.w3.org/2000/svg">
  <path class="map-circle-placemark__outline" fill-rule="evenodd" clip-rule="evenodd"
    d="M11.3083 25.9017C4.92716 25.0722 0 19.6138 0 13.0054C0 5.82366 5.81937 0 13 0C20.1806 0 26 5.82366 26 13.0054C26 14.7335 25.662 16.3876 25.0468 17.9014C23.6987 21.4768 20.8429 26.3559 18.2575 30.4453C15.6392 34.5867 13.1829 38.0963 12.5474 38.9697C12.048 39.6559 11.2783 39.9965 10.5201 39.9965C8.83647 39.9965 7.62976 38.3765 8.10664 36.765M11.3083 25.9017L8.10754 36.762Z"
    fill="white"></path>
  <path
    d="M13.8749 24.2678C13.9135 24.1384 13.8095 24.0097 13.6746 24.0129C13.4514 24.0181 13.2265 24.0109 13 24.0109C6.92487 24.0109 2 19.0836 2 13.0054C2 6.9273 6.92487 2 13 2C19.0751 2 24 6.9273 24 13.0054C24 14.4798 23.7102 15.8865 23.1845 17.1716C20.6578 23.8985 12.1494 36.1173 10.9302 37.793C10.8334 37.9259 10.6845 37.9965 10.5201 37.9965C10.1744 37.9965 9.92608 37.6634 10.0246 37.3318L13.8749 24.2678Z"
    fill="#E95229"></path>
  <path
    d="M13 20.9982C17.4183 20.9982 21 17.4165 21 12.9982C21 8.57992 17.4183 4.9982 13 4.9982C8.58172 4.9982 5 8.57992 5 12.9982C5 17.4165 8.58172 20.9982 13 20.9982Z"
    fill="white"></path>
</svg>

<svg width="26" height="40" fill="none" xmlns="http://www.w3.org/2000/svg"><path class="map-circle-placemark__outline" fill-rule="evenodd" clip-rule="evenodd" d="M11.308 25.902C4.928 25.072 0 19.614 0 13.005 0 5.824 5.82 0 13 0s13 5.824 13 13.005a12.98 12.98 0 01-.953 4.896c-1.348 3.576-4.204 8.455-6.79 12.544-2.618 4.142-5.074 7.651-5.71 8.525a2.517 2.517 0 01-4.44-2.205m3.201-10.863l-3.2 10.86z" fill="#fff"/><path d="M13.875 24.268a.201.201 0 00-.2-.255c-.224.005-.449-.002-.675-.002-6.075 0-11-4.927-11-11.006C2 6.927 6.925 2 13 2s11 4.927 11 11.005c0 1.475-.29 2.881-.816 4.167-2.526 6.726-11.035 18.945-12.254 20.621a.517.517 0 01-.906-.461l3.85-13.064z" fill="#E95229"/><path d="M13 20.998a8 8 0 100-16 8 8 0 000 16z" fill="#fff"/></svg>
